X:103
T:Trap Ball
M:2/4
L:1/8
B:Thompson's Compleat Collection of 200 Favourite Country Dances, vol. 3 (London, 1773)
Z:Transcribed and edited by Flynn Titford-Mock, 2007
Z:abc's:AK/Fiddler's Companion
K:G
d | g>d "tr"d2 | e>c "tr"c2 | BdBG | FAFD | g>d "tr"d2 | e>c "tr"c2 | Eed^c | d2 D :|
D | DFAc | BdgB | DFAc | BdgB | ceac | BdgB | cAGF | G2 G :|

